studios/france-4/primary.svg

<?xml version="1.0" encoding="UTF-8" standalone="no"?>
<svg
   width="1000"
   height="1500"
   viewBox="0 0 264.58333 396.87501"
   version="1.1"
   id="svg8"
   inkscape:version="1.2 (dc2aedaf03, 2022-05-15)"
   sodipodi:docname="primary.svg"
   xml:space="preserve"
   xmlns:inkscape="http://www.inkscape.org/namespaces/inkscape"
   xmlns:sodipodi="http://sodipodi.sourceforge.net/DTD/sodipodi-0.dtd"
   xmlns:xlink="http://www.w3.org/1999/xlink"
   xmlns="http://www.w3.org/2000/svg"
   xmlns:svg="http://www.w3.org/2000/svg"
   xmlns:rdf="http://www.w3.org/1999/02/22-rdf-syntax-ns#"
   xmlns:cc="http://creativecommons.org/ns#"
   xmlns:dc="http://purl.org/dc/elements/1.1/"><defs
     id="defs2"><inkscape:path-effect
       effect="fillet_chamfer"
       id="path-effect3429"
       is_visible="true"
       lpeversion="1"
       satellites_param="F,0,0,1,0,6.6145833,0,1 @ F,0,0,1,0,6.6145833,0,1 @ F,0,0,1,0,6.6145833,0,1 @ F,0,0,1,0,6.6145833,0,1"
       unit="px"
       method="auto"
       mode="F"
       radius="25"
       chamfer_steps="1"
       flexible="false"
       use_knot_distance="true"
       apply_no_radius="true"
       apply_with_radius="true"
       only_selected="false"
       hide_knots="false"
       nodesatellites_param="F,0,0,1,0,6.6145833,0,1 @ F,0,0,1,0,6.6145833,0,1 @ F,0,0,1,0,6.6145833,0,1 @ F,0,0,1,0,6.6145833,0,1" /><inkscape:path-effect
       effect="fillet_chamfer"
       id="path-effect3427"
       is_visible="true"
       lpeversion="1"
       satellites_param="F,1,0,1,0,0.03,0,1 @ F,1,0,1,0,0.03,0,1 @ F,1,0,1,0,0.03,0,1 @ F,1,0,1,0,0.03,0,1"
       unit="px"
       method="auto"
       mode="F"
       radius="15"
       chamfer_steps="1"
       flexible="false"
       use_knot_distance="true"
       apply_no_radius="true"
       apply_with_radius="true"
       only_selected="false"
       hide_knots="false"
       nodesatellites_param="F,1,0,1,0,0.03,0,1 @ F,1,0,1,0,0.03,0,1 @ F,1,0,1,0,0.03,0,1 @ F,1,0,1,0,0.03,0,1" /><inkscape:path-effect
       effect="fillet_chamfer"
       id="path-effect1210"
       is_visible="true"
       lpeversion="1"
       satellites_param="F,1,0,1,0,0.02,0,1 @ F,1,0,1,0,0.02,0,1 @ F,1,0,1,0,0.02,0,1 @ F,1,0,1,0,0.02,0,1"
       unit="px"
       method="auto"
       mode="F"
       radius="2"
       chamfer_steps="1"
       flexible="true"
       use_knot_distance="true"
       apply_no_radius="true"
       apply_with_radius="true"
       only_selected="false"
       hide_knots="false"
       nodesatellites_param="F,1,0,1,0,0.02,0,1 @ F,1,0,1,0,0.02,0,1 @ F,1,0,1,0,0.02,0,1 @ F,1,0,1,0,0.02,0,1" /><inkscape:path-effect
       effect="fillet_chamfer"
       id="path-effect1191"
       is_visible="true"
       lpeversion="1"
       satellites_param="F,1,0,1,0,0.03,0,1 @ F,1,0,1,0,0.03,0,1 @ F,1,0,1,0,0.03,0,1 @ F,1,0,1,0,0.03,0,1"
       unit="px"
       method="auto"
       mode="F"
       radius="3"
       chamfer_steps="1"
       flexible="true"
       use_knot_distance="true"
       apply_no_radius="true"
       apply_with_radius="true"
       only_selected="false"
       hide_knots="false"
       nodesatellites_param="F,1,0,1,0,0.03,0,1 @ F,1,0,1,0,0.03,0,1 @ F,1,0,1,0,0.03,0,1 @ F,1,0,1,0,0.03,0,1" /><linearGradient
       inkscape:collect="always"
       id="linearGradient847"><stop
         style="stop-color:#ffffff;stop-opacity:1;"
         offset="0"
         id="stop843" /><stop
         style="stop-color:#ededed;stop-opacity:1;"
         offset="1"
         id="stop845" /></linearGradient><radialGradient
       inkscape:collect="always"
       xlink:href="#linearGradient847"
       id="radialGradient849"
       cx="26.375103"
       cy="97.113945"
       fx="26.375103"
       fy="97.113945"
       r="132.29167"
       gradientTransform="matrix(0,3.0734875,-2.0099162,0,221.56598,-34.611386)"
       gradientUnits="userSpaceOnUse" /></defs><sodipodi:namedview
     id="base"
     pagecolor="#757575"
     bordercolor="#666666"
     borderopacity="1.0"
     inkscape:pageopacity="1"
     inkscape:pageshadow="2"
     inkscape:zoom="0.50181065"
     inkscape:cx="262.05103"
     inkscape:cy="795.12063"
     inkscape:document-units="mm"
     inkscape:current-layer="layer1"
     inkscape:document-rotation="0"
     showgrid="false"
     units="px"
     inkscape:showpageshadow="false"
     inkscape:pagecheckerboard="false"
     inkscape:lockguides="true"
     inkscape:window-width="1920"
     inkscape:window-height="1017"
     inkscape:window-x="-8"
     inkscape:window-y="-8"
     inkscape:window-maximized="1"
     showguides="true"
     inkscape:guide-bbox="true"
     inkscape:deskcolor="#757575"><sodipodi:guide
       position="0,396.875"
       orientation="0,1000"
       inkscape:locked="true"
       id="guide833" /><sodipodi:guide
       position="264.58333,396.875"
       orientation="1500,0"
       inkscape:locked="true"
       id="guide835" /><sodipodi:guide
       position="264.58333,0"
       orientation="0,-1000"
       inkscape:locked="true"
       id="guide837" /><sodipodi:guide
       position="0,0"
       orientation="-1500,0"
       inkscape:locked="true"
       id="guide839" /><sodipodi:guide
       position="275.56944,291.04167"
       orientation="0,1"
       id="guide1075"
       inkscape:label=""
       inkscape:locked="true"
       inkscape:color="rgb(0,0,255)" /><sodipodi:guide
       position="323.19316,105.83333"
       orientation="0,1"
       id="guide1077"
       inkscape:label=""
       inkscape:locked="true"
       inkscape:color="rgb(0,0,255)" /><sodipodi:guide
       position="39.6875,280.99221"
       orientation="-1,0"
       id="guide1079"
       inkscape:label=""
       inkscape:locked="true"
       inkscape:color="rgb(0,0,255)" /><sodipodi:guide
       position="224.89583,283.67412"
       orientation="-1,0"
       id="guide1081"
       inkscape:label=""
       inkscape:locked="true"
       inkscape:color="rgb(0,0,255)" /></sodipodi:namedview><metadata
     id="metadata5"><rdf:RDF><cc:Work
         rdf:about=""><dc:format>image/svg+xml</dc:format><dc:type
           rdf:resource="http://purl.org/dc/dcmitype/StillImage" /></cc:Work></rdf:RDF></metadata><g
     inkscape:label="Layer 1"
     inkscape:groupmode="layer"
     id="layer1"><rect
       style="opacity:0.98;fill:url(#radialGradient849);fill-opacity:1;stroke-width:2.64583"
       id="background"
       width="264.58334"
       height="396.875"
       x="-5.0862632e-06"
       y="-4.7961635e-14" /><g
       id="logo"
       transform="matrix(0.68216693,0,0,0.68216693,39.687508,127.18517)">
	
	
<path
   class="st1"
   d="M 204.2,131 V 57 l -48.5,74 z M 244.5,0 v 131 h 27 v 35.8 h -27 v 42.1 H 204.2 V 166.8 H 110.3 V 134.9 L 198.7,0 Z"
   id="path297"
   transform="translate(-9.161981e-8)" /><circle
   class="st0"
   cx="39.5"
   cy="136.5"
   r="39.5"
   id="circle287"
   transform="translate(-9.161981e-8)" /></g><path
       id="border"
       style="opacity:0.98;fill:#8c1eaa;fill-opacity:1;stroke-width:46.3438"
       d="M 49.832031 25 A 25 25 0 0 0 25 50 L 25 1450 A 25 25 0 0 0 50 1475 L 950 1475 A 25 25 0 0 0 975 1450 L 975 50 A 25 25 0 0 0 950 25 L 50 25 A 25 25 0 0 0 49.832031 25 z M 73.542969 50 A 23.68421 24.137931 0 0 1 73.683594 50 L 926.31641 50 A 23.68421 24.137931 0 0 1 950 74.138672 L 950 1425.8613 A 23.68421 24.137931 0 0 1 926.31641 1450 L 73.683594 1450 A 23.68421 24.137931 0 0 1 50 1425.8613 L 50 74.138672 A 23.68421 24.137931 0 0 1 73.542969 50 z "
       transform="scale(0.26458333)" /></g><style
     type="text/css"
     id="style285">
	.st0{fill:#8C1EAA;}
	.st1{fill:#232323;}
</style></svg>

<svg xmlns="http://www.w3.org/2000/svg" xmlns:xlink="http://www.w3.org/1999/xlink" xml:space="preserve" width="1000" height="1500" viewBox="0 0 264.583 396.875"><defs><radialGradient xlink:href="#a" id="b" cx="26.375" cy="97.114" r="132.292" fx="26.375" fy="97.114" gradientTransform="matrix(0 3.07349 -2.00992 0 221.566 -34.611)" gradientUnits="userSpaceOnUse"/><linearGradient id="a"><stop offset="0" style="stop-color:#fff;stop-opacity:1"/><stop offset="1" style="stop-color:#ededed;stop-opacity:1"/></linearGradient></defs><path d="M0 0h264.583v396.875H0z" style="opacity:.98;fill:url(#b);fill-opacity:1;stroke-width:2.64583"/><g transform="translate(39.688 127.185)scale(.68217)"><path d="M204.2 131V57l-48.5 74zM244.5 0v131h27v35.8h-27v42.1h-40.3v-42.1h-93.9v-31.9L198.7 0Z" style="fill:#232323"/><circle cx="39.5" cy="136.5" r="39.5" style="fill:#8c1eaa"/></g><path d="M49.832 25A25 25 0 0 0 25 50v1400a25 25 0 0 0 25 25h900a25 25 0 0 0 25-25V50a25 25 0 0 0-25-25zm23.711 25a23.684 24.138 0 0 1 .14 0h852.633A23.684 24.138 0 0 1 950 74.139V1425.86a23.684 24.138 0 0 1-23.684 24.14H73.684A23.684 24.138 0 0 1 50 1425.861V74.14A23.684 24.138 0 0 1 73.543 50" style="opacity:.98;fill:#8c1eaa;fill-opacity:1;stroke-width:46.3438" transform="scale(.26458)"/></svg>
